public/avatar.svg

<svg width="217px" height="237px" viewBox="0 0 217 237" version="1.1" xmlns="http://www.w3.org/2000/svg">
    <title>mf-avatar</title>
    <defs>
        <clipPath id="mf-avatar-clip">
            <path d="M-3.19744231e-14,144 L-3.19744231e-14,-1.42108547e-14 L237.6,-1.42108547e-14 L237.6,144 L226.8,144 C226.8,203.646753 178.446753,252 118.8,252 C59.153247,252 10.8,203.646753 10.8,144 L10.8,144 L-3.19744231e-14,144 Z"></path>
        </clipPath>
        <clipPath id="mf-skin-clip">
            <path d="M90,0 C117.835151,-5.11323436e-15 140.4,22.5648486 140.4,50.4 L140.400938,55.9494825 C145.50836,56.8068094 149.4,61.2489341 149.4,66.6 L149.4,79.2 C149.4,84.6471857 145.367296,89.1524828 140.124546,89.8932318 C138.264968,107.718065 127.114,122.779595 111.600867,130.149444 L111.6,146.7 L115.2,146.7 C150.988052,146.7 180,175.711948 180,211.5 L180,219.6 L0,219.6 L0,211.5 C-4.38277231e-15,175.711948 29.0119482,146.7 64.8,146.7 L68.4,146.7 L68.4001308,130.149918 C52.8864784,122.78024 41.7350715,107.718447 39.8746409,89.8932685 C34.6327044,89.1524828 30.6,84.6471857 30.6,79.2 L30.6,66.6 C30.6,61.2485843 34.4921486,56.8062286 39.6000641,55.9493144 L39.6,50.4 C39.6,22.5648486 62.1648486,5.11323436e-15 90,0 Z"></path>
        </clipPath>
        <clipPath id="mf-hoodie-clip">
            <path d="M140.401336,11.7639465 C156.691257,13.5869406 169.2,18.5974066 169.2,31.5692308 L169.194195,31.1796307 C192.467264,41.0099495 208.8,64.0473854 208.8,90.8995362 L208.8,99 L28.8,99 L28.8,90.8995362 C28.8,64.0473854 45.1327357,41.0099495 68.4058046,31.1796307 C68.6525649,18.4964574 81.0734584,13.568361 97.199665,11.7638345 L97.2,28.8 C97.2,40.7293506 106.870649,50.4 118.8,50.4 C130.729351,50.4 140.4,40.7293506 140.4,28.8 L140.4,28.8 Z"></path>
        </clipPath>
        <clipPath id="mf-mouth-clip">
            <path d="M31.6060596,13.6152695 C32.5581409,22.1578223 39.8033886,28.8 48.6,28.8 C57.4237849,28.8 64.6866067,22.1167224 65.6025833,13.5360492 C65.6763017,12.8454714 64.9050687,11.7 63.9384903,11.7 C50.5338783,11.7 40.2641292,11.7 33.3781419,11.7 C32.4059551,11.7 31.5108052,12.7605992 31.6060596,13.6152695 Z"></path>
        </clipPath>
        <clipPath id="mf-hair-clip">
            <path d="M118.134982,20.9283675 C115.651186,18.3903589 112.767321,16.2361467 109.962327,14.0758953 C109.34341,13.5996978 108.714559,13.134975 108.109489,12.6406597 C107.971919,12.528329 106.562799,11.5191649 106.394222,11.147749 C105.988434,10.2542371 106.223538,10.9499625 106.27953,9.8837271 C106.350272,8.53545721 109.099576,4.72738744 107.048059,3.85410714 C106.145572,3.47000876 104.535665,4.49215737 103.669903,4.82975328 C101.976612,5.49045082 100.262549,6.05391591 98.5120609,6.53977621 C99.3507296,4.86870665 100.949799,1.52354791 97.944319,2.41887158 C95.6029101,3.11640875 93.421047,4.90977378 91.068199,5.75346159 C91.8466618,4.47736113 94.9599107,0.523140708 92.1467884,0.302102957 C91.2713941,0.233255133 88.7240809,1.87533613 87.781557,2.22561453 C84.9585007,3.27493992 82.0749374,3.95315138 79.1109992,4.48732594 C69.0328266,6.30364025 57.2475146,5.78577175 47.9231203,10.3741169 C40.7345316,13.9113248 33.6362518,19.399825 29.4835474,26.3887851 C25.4810568,33.1253031 23.9840362,40.4977576 23.1462706,48.2171688 C22.531568,53.8823181 22.4815971,59.7383087 22.7690804,65.4239915 C22.8630017,67.2868082 23.0725183,75.8737625 25.7787751,73.2732473 C27.1270871,71.9775192 27.1171531,66.7453865 27.4567146,64.9743669 C28.1325262,61.4507473 28.7830513,57.9114256 29.9098054,54.5004387 C31.8953972,48.4895405 34.2377091,45.6866929 39.1842288,41.5467645 C42.3585867,38.890386 44.5877115,35.3000323 47.625402,32.6201006 C48.9899695,31.4164715 47.9487079,31.5417866 50.1426122,31.6997139 C51.6164535,31.8057033 53.0969174,31.8461665 54.573769,31.8848179 C57.9901549,31.9735954 61.4119592,31.950948 64.8292481,31.9630266 C71.7113886,31.9877877 78.561319,32.0850201 85.4368368,31.7247769 C88.4922881,31.5647359 91.5561682,31.4780722 94.6034916,31.1954338 C96.3058144,31.0375065 99.3263462,29.9465101 100.727639,30.7802331 C102.010026,31.5429945 103.341781,34.0335947 104.262631,35.0536296 C106.438172,37.4642093 109.032145,39.3052847 111.576147,41.2819419 C116.880892,45.4034505 119.559153,46.9800218 121.170264,53.4209169 C122.775354,59.8379568 122.325315,65.791335 124.312111,72.106311 C124.661606,73.2166332 125.586068,75.1304819 126.725767,73.4150236 C126.93739,73.0964515 126.882603,71.3451249 126.882603,70.3374051 C126.882603,66.269634 127.912727,63.2175395 127.899903,59.1232077 C127.849209,46.6744341 127.446733,30.4417478 118.134982,20.9283675 Z"></path>
        </clipPath>
    </defs>
    <g transform="translate(-10, -15)" fill="none" fill-rule="evenodd">
        <!-- Background Circle -->
        <g transform="translate(10.8, 36)">
            <circle fill="#8a4ca8" cx="108" cy="108" r="108"></circle>
        </g>
        <!-- Avatar Wrapper -->
        <g clip-path="url(#mf-avatar-clip)">
            <!-- Neck & Face base -->
            <g transform="translate(28.8, 32.4)">
                <!-- Base body paths -->
                <path fill="#FFDBB4" d="M90,0 C117.835151,-5.11323436e-15 140.4,22.5648486 140.4,50.4 L140.400938,55.9494825 C145.50836,56.8068094 149.4,61.2489341 149.4,66.6 L149.4,79.2 C149.4,84.6471857 145.367296,89.1524828 140.124546,89.8932318 C138.264968,107.718065 127.114,122.779595 111.600867,130.149444 L111.6,146.7 L115.2,146.7 C150.988052,146.7 180,175.711948 180,211.5 L180,219.6 L0,219.6 L0,211.5 C-4.38277231e-15,175.711948 29.0119482,146.7 64.8,146.7 L68.4,146.7 L68.4001308,130.149918 C52.8864784,122.78024 41.7350715,107.718447 39.8746409,89.8932685 C34.6327044,89.1524828 30.6,84.6471857 30.6,79.2 L30.6,66.6 C30.6,61.2485843 34.4921486,56.8062286 39.6000641,55.9493144 L39.6,50.4 C39.6,22.5648486 62.1648486,5.11323436e-15 90,0 Z"></path>
                <!-- Neck Shadow clipped to face -->
                <path d="M39.6,84.6 C39.6,112.435151 62.1648486,135 90,135 C117.835151,135 140.4,112.435151 140.4,84.6 L140.4,84.6 L140.4,91.8 C140.4,119.635151 117.835151,142.2 90,142.2 C62.1648486,142.2 39.6,119.635151 39.6,91.8 Z" fill-opacity="0.1" fill="#000000" clip-path="url(#mf-skin-clip)"></path>
            </g>
            <!-- Hoodie -->
            <g transform="translate(0, 153)">
                <path fill="#293347" d="M140.401336,11.7639465 C156.691257,13.5869406 169.2,18.5974066 169.2,31.5692308 L169.194195,31.1796307 C192.467264,41.0099495 208.8,64.0473854 208.8,90.8995362 L208.8,99 L28.8,99 L28.8,90.8995362 C28.8,64.0473854 45.1327357,41.0099495 68.4058046,31.1796307 C68.6525649,18.4964574 81.0734584,13.568361 97.199665,11.7638345 L97.2,28.8 C97.2,40.7293506 106.870649,50.4 118.8,50.4 C130.729351,50.4 140.4,40.7293506 140.4,28.8 L140.4,28.8 Z"></path>
                <!-- Details clipped to hoodie -->
                <g clip-path="url(#mf-hoodie-clip)">
                    <path d="M91.7997922,55.5650565 L91.8,99 L85.5,99 L85.4989717,52.3346251 C87.4825877,53.5136414 89.5915786,54.5944735 91.7997922,55.5650565 Z M152.101479,52.334357 L152.1,88.65 C152.1,90.389697 150.689697,91.8 148.95,91.8 C147.210303,91.8 145.8,90.389697 145.8,88.65 L145.80121,55.5646162 C148.009227,54.594073 150.118032,53.5132992 152.101479,52.334357 Z" fill="#F4F4F4" fill-rule="evenodd"></path>
                    <path d="M155.733313,11.4514328 C169.280438,14.0134155 178.65,19.1179672 178.65,29.0769231 C178.65,46.8180086 148.916087,61.2 118.8,61.2 C88.6839126,61.2 58.95,46.8180086 58.95,29.0769231 C58.95,19.1179672 68.3195623,14.0134155 81.8666868,11.4514328 C73.6891467,14.4655041 68.4,19.534193 68.4,27.9692308 C68.4,46.3220778 93.4390843,61.2 118.8,61.2 C144.160916,61.2 169.2,46.3220778 169.2,27.9692308 C169.2,19.7104496 164.129585,14.6788022 156.241116,11.6422715 Z" fill-opacity="0.16" fill="#000000" fill-rule="evenodd"></path>
                </g>
            </g>
            <!-- Face features -->
            <g transform="translate(68.4, 73.8)">
                <g transform="translate(1.8, 46.8)">
                    <!-- Mouth base -->
                    <path fill-opacity="0.7" fill="#000000" d="M31.6060596,13.6152695 C32.5581409,22.1578223 39.8033886,28.8 48.6,28.8 C57.4237849,28.8 64.6866067,22.1167224 65.6025833,13.5360492 C65.6763017,12.8454714 64.9050687,11.7 63.9384903,11.7 C50.5338783,11.7 40.2641292,11.7 33.3781419,11.7 C32.4059551,11.7 31.5108052,12.7605992 31.6060596,13.6152695 Z"></path>
                    <!-- Teeth and Tongue clipped to mouth -->
                    <g clip-path="url(#mf-mouth-clip)">
                        <path d="M39.6,1.8 L58.5,1.8 C60.9852814,1.8 63,3.81471863 63,6.3 L63,11.7 C63,14.1852814 60.9852814,16.2 58.5,16.2 L39.6,16.2 C37.1147186,16.2 35.1,14.1852814 35.1,11.7 L35.1,6.3 C35.1,3.81471863 37.1147186,1.8 39.6,1.8 Z" fill="#FFFFFF" fill-rule="evenodd"></path>
                        <g fill="#FF4F6D" transform="translate(34.2, 21.6)">
                            <circle cx="9.9" cy="9.9" r="9.9"></circle>
                            <circle cx="18.9" cy="9.9" r="9.9"></circle>
                        </g>
                    </g>
                </g>
                <!-- Nose -->
                <g transform="translate(25.2, 36)" fill="#000000" fill-opacity="0.16">
                    <path d="M14.4,7.2 C14.4,11.1764502 19.2353247,14.4 25.2,14.4 L25.2,14.4 C31.1646753,14.4 36,11.1764502 36,7.2"></path>
                </g>
                <!-- Eyes Happy -->
                <g transform="translate(0, 7.2)" fill="#000000" fill-opacity="0.6">
                    <path d="M14.5441507,20.2025804 C16.2060084,16.7836572 19.9479802,14.4 24.2978223,14.4 C28.6323089,14.4 32.3632095,16.7668578 34.0338166,20.1664118 C34.5300845,21.1762779 33.8238934,22.0027335 33.1115463,21.3903205 C30.9055557,19.493805 27.7728447,18.3094095 24.2978223,18.3094095 C20.9314855,18.3094095 17.8863826,19.4208767 15.6937852,21.2144771 C14.8921136,21.8702649 14.0580911,21.202546 14.5441507,20.2025804 Z"></path>
                    <path d="M66.7441507,20.2025804 C68.4060084,16.7836572 72.1479802,14.4 76.4978223,14.4 C80.8323089,14.4 84.5632095,16.7668578 86.2338166,20.1664118 C86.7300845,21.1762779 86.0238934,22.0027335 85.3115463,21.3903205 C83.1055557,19.493805 79.9728447,18.3094095 76.4978223,18.3094095 C73.1314855,18.3094095 70.0863826,19.4208767 67.8937852,21.2144771 C67.0921136,21.8702649 66.2580911,21.202546 66.7441507,20.2025804 Z"></path>
                </g>
                <!-- Eyebrows Natural -->
                <g fill="#000000" fill-opacity="0.6">
                    <path d="M23.4351841,5.58911128 C18.2497998,6.28511594 10.1636382,10.8047231 10.839834,16.03603 C10.8620533,16.2072489 11.1210572,16.2606121 11.2328169,16.1176444 C13.4706637,13.2483016 30.7735176,9.03289328 37.0748406,9.91324359 C37.6515471,9.99400182 38.0322596,9.39873091 37.6389451,9.02718599 C34.2689096,5.84536884 28.0803412,4.96102342 23.4351841,5.58911128" transform="translate(24.3, 10.8) rotate(5) translate(-24.3, -10.8)"></path>
                    <path d="M76.5351841,5.58911128 C71.3497998,6.28511594 63.2636382,10.8047231 63.939834,16.03603 C63.9620533,16.2072489 64.2210572,16.2606121 64.3328169,16.1176444 C66.5706637,13.2483016 83.8735176,9.03289328 90.1748406,9.91324359 C90.7515471,9.99400182 91.1322596,9.39873091 90.7389451,9.02718599 C87.3689096,5.84536884 81.1803412,4.96102342 76.5351841,5.58911128" transform="translate(77.4, 10.8) scale(-1, 1) rotate(5) translate(-77.4, -10.8)"></path>
                </g>
            </g>
            <!-- Hair -->
            <g transform="translate(43, 15)">
                <path fill="#4A312C" d="M118.134982,20.9283675 C115.651186,18.3903589 112.767321,16.2361467 109.962327,14.0758953 C109.34341,13.5996978 108.714559,13.134975 108.109489,12.6406597 C107.971919,12.528329 106.562799,11.5191649 106.394222,11.147749 C105.988434,10.2542371 106.223538,10.9499625 106.27953,9.8837271 C106.350272,8.53545721 109.099576,4.72738744 107.048059,3.85410714 C106.145572,3.47000876 104.535665,4.49215737 103.669903,4.82975328 C101.976612,5.49045082 100.262549,6.05391591 98.5120609,6.53977621 C99.3507296,4.86870665 100.949799,1.52354791 97.944319,2.41887158 C95.6029101,3.11640875 93.421047,4.90977378 91.068199,5.75346159 C91.8466618,4.47736113 94.9599107,0.523140708 92.1467884,0.302102957 C91.2713941,0.233255133 88.7240809,1.87533613 87.781557,2.22561453 C84.9585007,3.27493992 82.0749374,3.95315138 79.1109992,4.48732594 C69.0328266,6.30364025 57.2475146,5.78577175 47.9231203,10.3741169 C40.7345316,13.9113248 33.6362518,19.399825 29.4835474,26.3887851 C25.4810568,33.1253031 23.9840362,40.4977576 23.1462706,48.2171688 C22.531568,53.8823181 22.4815971,59.7383087 22.7690804,65.4239915 C22.8630017,67.2868082 23.0725183,75.8737625 25.7787751,73.2732473 C27.1270871,71.9775192 27.1171531,66.7453865 27.4567146,64.9743669 C28.1325262,61.4507473 28.7830513,57.9114256 29.9098054,54.5004387 C31.8953972,48.4895405 34.2377091,45.6866929 39.1842288,41.5467645 C42.3585867,38.890386 44.5877115,35.3000323 47.625402,32.6201006 C48.9899695,31.4164715 47.9487079,31.5417866 50.1426122,31.6997139 C51.6164535,31.8057033 53.0969174,31.8461665 54.573769,31.8848179 C57.9901549,31.9735954 61.4119592,31.950948 64.8292481,31.9630266 C71.7113886,31.9877877 78.561319,32.0850201 85.4368368,31.7247769 C88.4922881,31.5647359 91.5561682,31.4780722 94.6034916,31.1954338 C96.3058144,31.0375065 99.3263462,29.9465101 100.727639,30.7802331 C102.010026,31.5429945 103.341781,34.0335947 104.262631,35.0536296 C106.438172,37.4642093 109.032145,39.3052847 111.576147,41.2819419 C116.880892,45.4034505 119.559153,46.9800218 121.170264,53.4209169 C122.775354,59.8379568 122.325315,65.791335 124.312111,72.106311 C124.661606,73.2166332 125.586068,75.1304819 126.725767,73.4150236 C126.93739,73.0964515 126.882603,71.3451249 126.882603,70.3374051 C126.882603,66.269634 127.912727,63.2175395 127.899903,59.1232077 C127.849209,46.6744341 127.446733,30.4417478 118.134982,20.9283675 Z"></path>
            </g>
        </g>
    </g>
</svg>

<svg xmlns="http://www.w3.org/2000/svg" width="217" height="237" viewBox="0 0 217 237"><title>mf-avatar</title><g fill="none" fill-rule="evenodd" transform="translate(-10 -15)"><g transform="translate(10.8 36)"><circle cx="108" cy="108" r="108" fill="#972dc2"/><circle cx="108" cy="108" r="108" fill="#8a4ca8"/></g><g><g transform="translate(28.8 32.4)"><path fill="#d0c6ac" d="M90 0c27.835 0 50.4 22.565 50.4 50.4v5.55c5.108.857 9 5.299 9 10.65v12.6c0 5.447-4.033 9.952-9.275 10.693-1.86 17.825-13.011 32.887-28.524 40.256L111.6 146.7h3.6c35.788 0 64.8 29.012 64.8 64.8v8.1H0v-8.1c0-35.788 29.012-64.8 64.8-64.8h3.6v-16.55c-15.514-7.37-26.665-22.432-28.525-40.257-5.242-.74-9.275-5.246-9.275-10.693V66.6c0-5.351 3.892-9.794 9-10.65V50.4C39.6 22.565 62.165 0 90 0"/><path fill="#ffdbb4" d="M90 0c27.835 0 50.4 22.565 50.4 50.4v5.55c5.108.857 9 5.299 9 10.65v12.6c0 5.447-4.033 9.952-9.275 10.693-1.86 17.825-13.011 32.887-28.524 40.256L111.6 146.7h3.6c35.788 0 64.8 29.012 64.8 64.8v8.1H0v-8.1c0-35.788 29.012-64.8 64.8-64.8h3.6v-16.55c-15.514-7.37-26.665-22.432-28.525-40.257-5.242-.74-9.275-5.246-9.275-10.693V66.6c0-5.351 3.892-9.794 9-10.65V50.4C39.6 22.565 62.165 0 90 0"/></g><path fill="#000" fill-opacity=".1" d="M39.6 84.6c0 27.835 22.565 50.4 50.4 50.4s50.4-22.565 50.4-50.4v7.2c0 27.835-22.565 50.4-50.4 50.4s-50.4-22.565-50.4-50.4Z"/></g><g transform="translate(0 153)"><path fill="#b7c1db" d="M140.401 11.764c16.29 1.823 28.799 6.833 28.799 19.805l-.006-.39C192.467 41.01 208.8 64.048 208.8 90.9V99h-180v-8.1c0-26.853 16.333-49.89 39.606-59.72.247-12.684 12.667-17.612 28.794-19.416V28.8c0 11.93 9.67 21.6 21.6 21.6s21.6-9.67 21.6-21.6Z"/><path fill="#293347" d="M140.401 11.764c16.29 1.823 28.799 6.833 28.799 19.805l-.006-.39C192.467 41.01 208.8 64.048 208.8 90.9V99h-180v-8.1c0-26.853 16.333-49.89 39.606-59.72.247-12.684 12.667-17.612 28.794-19.416V28.8c0 11.93 9.67 21.6 21.6 21.6s21.6-9.67 21.6-21.6Z"/></g><path fill="#f4f4f4" d="M91.8 55.565V99h-6.3l-.001-46.665a58 58 0 0 0 6.3 3.23m60.301-3.23L152.1 88.65a3.15 3.15 0 1 1-6.3 0l.001-33.085a58 58 0 0 0 6.3-3.23"/><path fill="#000" fill-opacity=".16" d="M155.733 11.451c13.547 2.562 22.917 7.667 22.917 17.626 0 17.741-29.734 32.123-59.85 32.123S58.95 46.818 58.95 29.077c0-9.959 9.37-15.064 22.917-17.626C73.689 14.466 68.4 19.534 68.4 27.97c0 18.353 25.04 33.231 50.4 33.231s50.4-14.878 50.4-33.23c0-8.26-5.07-13.291-12.959-16.328Z"/><g transform="translate(70.2 120.6)"><path fill="#000" fill-opacity=".7" d="M31.606 13.615C32.558 22.158 39.803 28.8 48.6 28.8c8.824 0 16.087-6.683 17.003-15.264.073-.69-.698-1.836-1.665-1.836h-30.56c-.972 0-1.867 1.06-1.772 1.915"/><path fill="#fff" d="M39.6 1.8h18.9A4.5 4.5 0 0 1 63 6.3v5.4a4.5 4.5 0 0 1-4.5 4.5H39.6a4.5 4.5 0 0 1-4.5-4.5V6.3a4.5 4.5 0 0 1 4.5-4.5"/><g fill="#ff4f6d"><g transform="translate(34.2 21.6)"><circle cx="9.9" cy="9.9" r="9.9"/><circle cx="18.9" cy="9.9" r="9.9"/></g></g></g><path fill="#000" fill-opacity=".16" d="M108 117c0 3.976 4.835 7.2 10.8 7.2s10.8-3.224 10.8-7.2"/><g fill="#000" fill-opacity=".6"><path d="M82.944 101.203c1.662-3.42 5.404-5.803 9.754-5.803 4.334 0 8.065 2.367 9.736 5.766.496 1.01-.21 1.837-.922 1.224-2.206-1.896-5.34-3.08-8.814-3.08-3.367 0-6.412 1.11-8.604 2.904-.802.656-1.636-.011-1.15-1.011M135.144 101.203c1.662-3.42 5.404-5.803 9.754-5.803 4.334 0 8.065 2.367 9.736 5.766.496 1.01-.21 1.837-.922 1.224-2.206-1.896-5.34-3.08-8.814-3.08-3.367 0-6.412 1.11-8.604 2.904-.802.656-1.636-.011-1.15-1.011"/></g><g fill="#000" fill-opacity=".6"><path d="M92.293 79.334c-5.227.241-13.676 4.039-13.458 9.309.007.172.26.248.384.116 2.48-2.664 20.084-5.355 26.285-3.929.567.13.998-.43.639-.834-3.08-3.463-9.168-4.883-13.85-4.662M146.207 79.334c5.227.241 13.676 4.039 13.458 9.309-.007.172-.26.248-.384.116-2.48-2.664-20.084-5.355-26.285-3.929-.567.13-.998-.43-.639-.834 3.08-3.463 9.168-4.883 13.85-4.662"/></g><g><g transform="translate(43 15)"><path fill="#1f3140" d="M118.135 20.928c-2.484-2.538-5.368-4.692-8.173-6.852-.619-.476-1.247-.941-1.853-1.435-.137-.113-1.546-1.122-1.715-1.493-.406-.894-.17-.198-.114-1.264.07-1.349 2.82-5.157.768-6.03-.902-.384-2.512.638-3.378.976a54 54 0 0 1-5.158 1.71c.839-1.671 2.438-5.016-.568-4.121-2.341.697-4.523 2.49-6.876 3.334.779-1.276 3.892-5.23 1.079-5.45-.876-.07-3.423 1.572-4.365 1.923-2.823 1.049-5.707 1.727-8.671 2.261-10.078 1.817-21.863 1.299-31.188 5.887-7.188 3.537-14.287 9.026-18.44 16.015-4.002 6.736-5.499 14.109-6.337 21.828-.614 5.665-.664 11.521-.377 17.207.094 1.863.304 10.45 3.01 7.85 1.348-1.296 1.338-6.529 1.678-8.3.676-3.523 1.326-7.063 2.453-10.474 1.985-6.01 4.328-8.813 9.274-12.953 3.175-2.657 5.404-6.247 8.441-8.927 1.365-1.204.324-1.078 2.518-.92 1.473.106 2.954.146 4.43.185 3.417.089 6.839.066 10.256.078 6.882.025 13.732.122 20.608-.238 3.055-.16 6.12-.247 9.166-.53 1.703-.157 4.723-1.248 6.125-.415 1.282.763 2.614 3.254 3.535 4.274 2.175 2.41 4.77 4.251 7.313 6.228 5.305 4.121 7.983 5.698 9.594 12.139 1.605 6.417 1.155 12.37 3.142 18.685.35 1.11 1.274 3.024 2.414 1.309.211-.319.157-2.07.157-3.078 0-4.067 1.03-7.12 1.017-11.214-.05-12.449-.453-28.681-9.765-38.195"/><path fill="#4a312c" d="M118.135 20.928c-2.484-2.538-5.368-4.692-8.173-6.852-.619-.476-1.247-.941-1.853-1.435-.137-.113-1.546-1.122-1.715-1.493-.406-.894-.17-.198-.114-1.264.07-1.349 2.82-5.157.768-6.03-.902-.384-2.512.638-3.378.976a54 54 0 0 1-5.158 1.71c.839-1.671 2.438-5.016-.568-4.121-2.341.697-4.523 2.49-6.876 3.334.779-1.276 3.892-5.23 1.079-5.45-.876-.07-3.423 1.572-4.365 1.923-2.823 1.049-5.707 1.727-8.671 2.261-10.078 1.817-21.863 1.299-31.188 5.887-7.188 3.537-14.287 9.026-18.44 16.015-4.002 6.736-5.499 14.109-6.337 21.828-.614 5.665-.664 11.521-.377 17.207.094 1.863.304 10.45 3.01 7.85 1.348-1.296 1.338-6.529 1.678-8.3.676-3.523 1.326-7.063 2.453-10.474 1.985-6.01 4.328-8.813 9.274-12.953 3.175-2.657 5.404-6.247 8.441-8.927 1.365-1.204.324-1.078 2.518-.92 1.473.106 2.954.146 4.43.185 3.417.089 6.839.066 10.256.078 6.882.025 13.732.122 20.608-.238 3.055-.16 6.12-.247 9.166-.53 1.703-.157 4.723-1.248 6.125-.415 1.282.763 2.614 3.254 3.535 4.274 2.175 2.41 4.77 4.251 7.313 6.228 5.305 4.121 7.983 5.698 9.594 12.139 1.605 6.417 1.155 12.37 3.142 18.685.35 1.11 1.274 3.024 2.414 1.309.211-.319.157-2.07.157-3.078 0-4.067 1.03-7.12 1.017-11.214-.05-12.449-.453-28.681-9.765-38.195"/></g></g></g></svg>
